!!!!SEGMENT: pl-wn--mus-2041-3_zelenski-wladyslaw--zawod.krn
!!!cenid: 18xx:3655
!!!COM: Żeleński, Władysław
!!!COM-rismID: pe41024455
!!!CDT: 1837/07/06-1921/01/23
!!!CNT: Polish
!!!OTL: Zawód
!!!PDT:
!!!AGN:
!!!YEC: Copyright 2022 Narodowy Instytut Fryderyka Chopina (https://polishscores.org)
!!!YEM: License CC-BY-4.0 (https://creativecommons.org/licenses/by/4.0)
!!!SMS-siglum: PL-Wn
!!!SMS-shelfmark: Mus.2041/3
!!!SMS-shelfwork: W
!!!SMS-variant:
!!!SMS-altvar:
!!!NIFC-rismSourceID:
!!!NIFC-rismChildID:
!!!NIFC-islandoraID: none
!!!URL-pdf-islandora:
!!!URL-scan: https://polona2.pl/item/zawod,NjU5MjI0NzI/0 @EN{Scan on Polona} @PL{Skany w portalu Polona}
!!!IIIF: https://polona2.pl/iiif/item/NjU5MjI0NzI/manifest.json
!!!ONB-nifc:
!!!AIN: 1 empty 1 forte 1 piano
!!!key:
**kern	**kern	**dynam	**kern	**text	**dynam
*part3	*part2	*	*part1	*	*
*staff3	*staff2	*	*staff1	*	*
*Ipiano	*Iforte	*	*Iempty	*	*
*I"Pianoforte	*I"Fortepian	*	*I"Śpiew.	*	*
*	*I'pf	*	*I'voce umana	*	*
*clefF4	*clefG2	*	*clefG2	*	*
*k[f#]	*k[f#]	*	*k[f#]	*	*
*e:	*e:	*	*e:	*	*
*M3/4	*M3/4	*	*M3/4	*	*
*	*	*below	*	*	*
=1	=1	=1	=1	=1	=1
*	*	*	*xywh-#1:144,2226,5761,775	*	*
*	*^	*	*	*	*
*	*	*^	*	*	*	*
*xywh-#1:175,347,6005,2042	*xywh-#1:175,347,6005,2042	*xywh-#1:175,347,6005,2042	*xywh-#1:175,347,6005,2042	*	*	*	*
!	!LO:TX:a:B:t=Andante sostenuto.	!	!	!	!LO:TX:a:B:t=Andante	!	!
2.EE/ 2.EEE/	8r	8ryy	4.ryy	p	2.ryy	.	.
*	*clefF4	*	*	*	*	*	*
.	(8BB/L	[4.BB\	.	<	.	.	.
.	8F#/	.	.	.	.	.	.
!	!	!	!LO:TX:b:i:t=poco.	!	!	!	!
.	8G/J	.	[<8G\	.	.	.	.
.	4B/)	4BB\]	4G\]	[ <	.	.	.
=2	=2	=2	=2	=2	=2	=2	=2
*	*	*	*^	*	*	*	*
*	*	*	*	*xywh-#1:175,347,6005,2042	*	*	*	*
2.EE/ 2.EEE/	8r	8ryy	4ryy	4.ryy	.	2.ryy	.	.
.	(8C/L	[4.C\	.	.	.	.	.	.
.	8F#/	.	[<4F#\	.	.	.	.	.
.	8G/J	.	.	8G\	.	.	.	.
.	4A/)	4C\]	4F#\]	4ryy	.	.	.	.
*	*	*	*v	*v	*	*	*	*
=3	=3	=3	=3	=3	=3	=3	=3
[2.EE/ [2.EEE/	8r	8ryy	4ryy	.	2.ryy	.	.
.	(8C/L	[4.C\	.	.	.	.	.
.	8E/	.	[<4E\	.	.	.	.
.	8F#/J	.	.	.	.	.	.
.	4G/)	4C\]	4E\]	.	.	.	.
=4	=4	=4	=4	=4	=4	=4	=4
2.EE/] 2.EEE/]	8r	8ryy	4ryy	.	2.ryy	.	.
.	(8BB/L	[4.BB\	.	>	.	.	.
.	8E/	.	[<4E\	.	.	.	.
.	8F#/J	.	.	.	.	.	.
.	4G/)	4BB\]	4E\]	]	.	.	.
*	*	*v	*v	*	*	*	*
!!LO:LB:g=original
=5	=5	=5	=5	=5	=5	=5
*xywh-#1:397,2827,5486,1321	*xywh-#1:397,2827,5486,1321	*xywh-#1:397,2827,5486,1321	*	*	*	*
2.EE/ 2.EEE/	8r	8ryy	pp	8r	.	.
!	!	!	!	!LO:TX:a:i:t=dolce	!	!
.	(8BB/L	[4.BB\	.	8e/	Wy-	.
.	8F#/	.	.	8f#/	-ko-	.
.	[<8G/J	.	.	8g/	-ły-	.
.	4B/)	4G\] 4BB\]	.	[4b\	-sa-	.
=6	=6	=6	=6	=6	=6	=6
*	*	*^	*	*	*	*
*	*	*	*xywh-#1:397,2827,5486,1321	*	*	*	*
2.EE/ 2.EEE/	8r	8ryy	4ryy	.	8b\]	.	.
.	(8C/L	[4.C\	.	.	8f#/	-łem	.
.	[[<8F#/	.	4F#\	.	[2a\	cię	.
.	8G/J	.	.	.	.	.	.
.	4A/)	4F#\]] 4C\]	4ryy	.	.	.	.
*	*	*v	*v	*	*	*	*
=7	=7	=7	=7	=7	=7	=7
[2.EE/ [2.EEE/	8r	8ryy	.	8a\]	.	.
.	(8C/L	[8C\	.	8e/	wśród	.
.	8E/	[4E\ 4C\_	.	4.g/	fal	.
.	8F#/	.	.	.	.	.
.	8G/	4E\] 4C\]	.	.	.	.
.	8A/J	.	.	8f#/	Mych	.
*	*v	*v	*	*	*	*
=8	=8	=8	=8	=8	=8
2.EE/] 2.EEE/]	8B\ 8E\ 8BB\)	.	8e/	snów,	.
.	8r	.	8g/	jak	.
.	(4G\ 4E\ 4BB'\	p	8f#/	lim-	.
.	.	.	8e/	-bę	.
.	4c\ 4G\ 4E'\)	.	8d/	gdzieś	.
.	.	.	8c/	nad	.
*	*clefG2	*	*	*	*
!!LO:LB:g=original
=9	=9	=9	=9	=9	=9
*	*^	*	*	*	*
*xywh-#1:579,4499,5277,1428	*xywh-#1:579,4499,5277,1428	*xywh-#1:579,4499,5277,1428	*	*xywh-#1:584,3958,5321,712	*	*
[2.DD#X/ [2.DDD#X/	8r	8ryy	.	4f#/	wo-	.
.	(8A/L	[4.A\	.	.	.	.
.	8B/	.	.	2B/	-dną,	.
.	[<8c/	.	.	.	.	.
.	8f#/ 8c/] 8A/])	4ryy	.	.	.	.
.	(8F#/J	.	.	.	.	.
=10	=10	=10	=10	=10	=10	=10
2.DD#/] 2.DDD#/]	8A/L	[4A\ [4F#\	.	2.r	.	.
.	8c/J	.	.	.	.	.
.	4B/)	4A\] 4F#\]	.	.	.	.
*	*clefF4	*	*	*	*	*
.	4BB/	4ryy	.	.	.	.
=11	=11	=11	=11	=11	=11	=11
2.EE/ 2.EEE/	8r	8ryy	pp	8r	.	.
.	(8BB/L	[4.BB\	.	8e/L	Śni-	.
.	8F#/	.	.	8f#/J	.	.
.	[<8G/J	.	.	8g/	-łem	.
.	4B/)	4G\] 4BB\]	.	[4b\	cię	.
=12	=12	=12	=12	=12	=12	=12
*	*	*^	*	*	*	*
*	*	*	*xywh-#1:579,4499,5277,1428	*	*	*	*
2.EE/ 2.EEE/	8r	8ryy	4ryy	.	8b\]	.	.
.	(8C/L	4.C\	.	.	8f#/	tak	.
.	8F#/	.	[<4F#\	.	[>2a/	ci-	.
.	8G/J	.	.	.	.	.	.
.	4A/)	4C\	4F#\]	.	.	.	.
*	*	*v	*v	*	*	*	*
=13	=13	=13	=13	=13	=13	=13
[2.EE/ [2.EEE/	8r	8ryy	.	8a/]	.	.
.	(8C/L	[4.C\	.	8e/	-chą	.
.	[[<8E/	.	.	(>4g/	i	.
.	8F#/	.	.	.	.	.
.	8G/	4E\]] 4C\]	.	8f#/)	.	.
.	8A/J	.	.	8e/	po-	.
*	*v	*v	*	*	*	*
!!LO:LB:g=original
=14	=14	=14	=14	=14	=14
*xywh-#1:74,6278,5863,1570	*xywh-#1:74,6278,5863,1570	*	*xywh-#1:479,5627,5426,796	*	*
2EE/] 2EEE/]	8B\L 8E\ 8BB\)	.	4g/	-god-	.
.	(8BB\	.	.	.	.
.	8E\	.	8B/	-ną	.
.	8G\	.	8r	.	.
(4DD/ 4DDD/	8F#\	.	4B/	Ach!	.
.	8BB\J	.	.	.	.
=15	=15	=15	=15	=15	=15
*	*^	*	*	*	*
*	*	*xywh-#1:74,6278,5863,1570	*	*	*	*
4BBB/ 4BBBB/)	[<4D/	8D\L	.	8d/	jak	.
!	!	!	!	!	!	!LO:DY:a
.	.	[>8F#\J	.	8e/	mi	<
4r	8B\ 8F#\] 8D\])	2ryy	.	4f#/	żal,	.
.	8r	.	.	.	.	.
*	*clefG2	*	*	*	*	*
[4BB/ [4BBB/	(>4c#X/ 4G/ 4E/	.	.	8e/L	jak	.
.	.	.	.	8g/J	.	[[
=16	=16	=16	=16	=16	=16	=16
!	!	!	!	!	!	!LO:DY:a
8BB/] 8BBB/]	8d/ 8B/ 8F#/)	2ryy	.	[4f#/	żal!	>
8r	8r	.	.	.	.	.
4r	(>4b/	.	.	8f#/]	.	.
.	.	.	.	8r	.	]
(4A#X\	8e/L	(4cn\	.	4r	.	.
.	8g/J	.	.	.	.	.
=17	=17	=17	=17	=17	=17	=17
!	!	!	!	!LO:TX:a:i:t=poco agitato	!	!
4.B\)	4.f#/)	4.d\)	.	2.r	.	.
8r	8d/L 8B/	4.ryy	pp	.	.	.
4r	8d/ 8B/	.	.	.	.	.
.	8d/J 8B/	.	.	.	.	.
*	*v	*v	*	*	*	*
=18	=18	=18	=18	=18	=18
2.r	8d/L 8B/	.	2.r	.	.
.	8d/ 8B/	.	.	.	.
.	8d/ 8B/	.	.	.	.
.	8d/ 8B/	.	.	.	.
.	8d/ 8B/	.	.	.	.
.	8d/J 8B/	.	.	.	.
!!LO:PB:g=original
=19	=19	=19	=19	=19	=19
*xywh-#2:441,1143,5363,1206	*xywh-#2:441,1143,5363,1206	*	*xywh-#2:493,395,5357,827	*	*
2.r	8d/L 8B/	.	8r	.	.
.	8d/ 8B/	.	8f#/	Na	.
.	8d/ 8c/	.	8f#/	zie-	.
.	8d/ 8A/	.	8f#/	-lo-	.
.	8d/ 8B/	.	8g/	-noś-	.
.	8d/J 8c/ 8A/	.	8a/	-ci	.
=20	=20	=20	=20	=20	=20
2.r	8d/L 8B/ 8G/	.	[2b\	sen-	.
.	8d/ 8B/ 8G/	<	.	.	.
.	8d/ 8B/ 8F#/	.	.	.	.
.	8d/ 8B/ 8F#/	.	.	.	.
.	8d/ 8B/ 8E/	.	8b\]	.	.
.	8d/J 8B/ 8E/	[	8g\	-nych	.
=21	=21	=21	=21	=21	=21
(2.GG/ (2.GGG/	8d/L 8B/ 8D/	.	[4d/	hal,	.
.	8d/J 8B/ 8D/	.	.	.	.
.	8A#X/L 8F#/ 8D/	.	8d/]	.	.
.	8A#/J 8F#/ 8D/	.	8r	.	.
.	8B/L 8G/ 8D/	.	4r	.	.
.	8B/J 8G/ 8D/	.	.	.	.
=22	=22	=22	=22	=22	=22
!	!LO:TX:b:i:t=poco.	!	!	!	!
8CC/))	8A/L 8G/ 8E/	.	8r	.	.
!	!	!	!	!	!LO:DY:a
8r	8e/J	<	8e/	Gdzie	<
4r	8e/L 8d/	.	8f#/	wiatr	.
.	8e/ 8B/	.	8g/	błę-	.
4r	8e/ 8c/	.	8a/	-kit-	.
.	8e/J 8d/ 8B/	.	8b\	-ne	.
!!LO:LB:g=original
=23	=23	=23	=23	=23	=23
*xywh-#2:446,2759,5448,1308	*xywh-#2:446,2759,5448,1308	*	*xywh-#2:554,2190,5340,732	*	*
4r	8e/L 8c/ 8A/	.	[2cc\	mgły	.
.	8e/ 8c/ 8A/	.	.	.	.
4r	8e/ 8c/ 8G/	.	.	.	.
.	8e/ 8c/ 8G/	.	.	.	.
4AA/ 4AAA/	8e/ 8c/ 8E/	.	8cc\]	.	.
.	8e/J 8c/ 8E/	.	8g/	roz-	.
=24	=24	=24	=24	=24	=24
2.DD/ 2.DDD/	8e/L 8c/ 8G/	.	4b\	-pi-	.
.	8e/J 8c/ 8G/	.	.	.	.
.	8d/L 8c/ 8F#/	.	4a/	-na,	.
.	8d/ 8c/ 8F#/	.	.	.	.
.	8d/ 8c/ 8F#/	.	4r	.	.
.	8d/J 8c/ 8F#/	.	.	.	.
=25	=25	=25	=25	=25	=25
[2.GG/ [2.FFF#/	4d/ 4B/ 4G/	.	8r	.	.
.	.	.	8g/	By-	.
.	4r	.	8a/	-łaś	.
.	.	.	8b/	mi	.
.	4d/ 4B/ 4D/	.	([4dd\	dziew-	.
=26	=26	=26	=26	=26	=26
2GG/] 2FFF#/]	(>2e/ 2B-X/ 2E'/	<	8dd\L]	.	.
.	.	.	8cc#X\J)	.	.
.	.	.	4b-X\	-czę,	.
[4GG/ [4FFF#/	4f#/ 4B-/ 4F#'/)	[[	8a/	tak	.
.	.	.	8g/	je-	.
=27	=27	=27	=27	=27	=27
*	*^	*	*	*	*
*	*	*xywh-#2:446,2759,5448,1308	*	*	*	*
4GG/] 4FFF#/]	4g/ 4G/	4Bn/	.	4bn\	-dy-	.
*	*clefF4	*	*	*	*	*
2GG/ 2FFF#/	(4B/ 4BB/	2G\	.	4d/	-na	.
.	8c/L 8C/	.	.	4r	.	.
.	8d/J 8D/)	.	.	.	.	.
*	*v	*v	*	*	*	*
!!LO:LB:g=original
=28	=28	=28	=28	=28	=28
*xywh-#2:385,4523,5475,1348	*xywh-#2:385,4523,5475,1348	*	*xywh-#2:526,3923,5340,766	*	*
2.CC/ 2.CCC/	2.G\ 2.E-X\ 2.C\	p	4r	.	.
!	!	!	!	!	!LO:DY:a
!	!	!	!	!	!LO:DY:a
.	.	.	4e-X/	Ach!	p <
.	.	.	8d/	jak	.
.	.	.	8e-/	mi	.
=29	=29	=29	=29	=29	=29
!	!LO:TX:b:i:t=poco	!	!	!	!
4r	4r	.	2a/	żal!	.
[2C/ [2CC^/	[>2A\ [<2G\ [2E-X^\	sfz	.	.	.
.	.	.	8b/	jak	.
.	.	.	8cc\	mi	[
=30	=30	=30	=30	=30	=30
*	*^	*	*	*	*
*	*	*xywh-#2:385,4523,5475,1348	*	*	*	*
!	!	!	!	!LO:N:vis=2	!	!LO:DY:a:rj
4C/] 4CC/]	4A\] 4G\]	4E-\]	.	[2.ee-X\	żal!	f
(4AA/ 4AAA/	[2c/ [<2E-X/	4F#\	<	.	.	.
4GG/ 4GGG/	.	4G\	.	.	.	.
*	*v	*v	*	*	*	*
=31	=31	=31	=31	=31	=31
[2.FF#/ [2.FFF#/)	4c\] 4A\ 4E-\]	.	8ee-\]	.	.
.	.	.	8r	.	.
.	8r	[	4r	.	.
.	(8C\L	mf	.	.	.
.	8BBn\	.	4r	.	.
.	8C\J	.	.	.	.
=32	=32	=32	=32	=32	=32
8FF#/] 8FFF#/]	8AA\L	>	4r	.	.
8r	8C\	.	.	.	.
4r	8BB\	.	4r	.	.
.	8C\	.	.	.	.
4r	8AA\	.	8r	.	.
.	8C\J	]	8c/	jak	.
=33	=33	=33	=33	=33	=33
4r	8BB/)	.	[2B/	żal!	.
.	8r	.	.	.	.
(2BBB/ (2BBBB/	([2BB\ 2AA\	pp	.	.	.
.	.	.	8B/]	.	.
.	.	.	8r	.	.
!!LO:LB:g=original
=34	=34	=34	=34	=34	=34
*	*^	*	*	*	*
*xywh-#2:479,6248,5334,1409	*xywh-#2:479,6248,5334,1409	*xywh-#2:479,6248,5334,1409	*	*xywh-#2:498,5617,5385,749	*	*
2.EE/ 2.EEE/))	16BB\]LL 16GG\)	8ryy	.	8r	.	.
!	!LO:TX:b:t=Cegg.	!	!	!	!	!
.	16BB\	.	.	.	.	.
!	!	!	!	!LO:TX:a:i:t=dolce	!	!
.	16E\	8E/L	.	8e/	W ko-	.
.	16BB\JJ	.	.	.	.	.
.	16F#\LL	8F#/	.	8f#/	-ło	.
.	16BB\	.	.	.	.	.
.	16G\	8G/J	.	8g/	szu-	.
.	16BB\JJ	.	.	.	.	.
.	16B\LL	4B/	.	[4b\	-mia-	.
.	16BB\	.	.	.	.	.
.	16G\	.	.	.	.	.
.	16BB\JJ	.	.	.	.	.
=35	=35	=35	=35	=35	=35	=35
2.EE/ 2.EEE/	8r	16r	.	8b\]	.	.
.	.	16C\LL	.	.	.	.
.	8F#/L	16F#\	.	8f#/	-ły	.
.	.	16C\JJ	.	.	.	.
.	8A/	16A\LL	.	[>2a/	smre-	.
.	.	16C\	.	.	.	.
.	8G/	16G\	.	.	.	.
.	.	16C\JJ	.	.	.	.
.	8F#/	16F#\LL	.	.	.	.
.	.	16C\	.	.	.	.
.	8A/J	16A\	.	.	.	.
.	.	16C\JJ	.	.	.	.
=36	=36	=36	=36	=36	=36	=36
[2.EE/ [2.EEE/	8r	16r	.	8a/]	.	.
.	.	16BB\LL	.	.	.	.
.	8E/L	16E\	.	8e/	-ki	.
.	.	16BB\JJ	.	.	.	.
.	8G/	16G\LL	.	[>2g/	w dal	.
.	.	16BB\	.	.	.	.
.	8F#/	16F#\	.	.	.	.
.	.	16BB\JJ	.	.	.	.
.	8E/	16E\LL	.	.	.	.
.	.	16BB\	.	.	.	.
.	8F#/J	16F#\	.	.	.	.
.	.	16BB\JJ	.	.	.	.
=37	=37	=37	=37	=37	=37	=37
4EE/] 4EEE/]	8ryy	16G\LL	.	8g/]	.	.
.	.	16BB\	.	.	.	.
.	8G/L	16G\	.	8g/	Ja-	.
.	.	16BB\JJ	.	.	.	.
4DD/ 4DDD/	8F#/	16F#\LL	.	8f#/	-kiemś	.
.	.	16BB\	.	.	.	.
.	8E/	16E\	.	8e/	mo-	.
.	.	16BB\JJ	.	.	.	.
4GG/ 4GGG/	8D/	16D\LL	.	8d/	-dle-	.
.	.	16BB\	.	.	.	.
.	8E/J	16E\	.	8e/	-niem	.
.	.	16BB\JJ	.	.	.	.
!!LO:PB:g=original
=38	=38	=38	=38	=38	=38	=38
*xywh-#3:452,1111,5404,1258	*xywh-#3:452,1111,5404,1258	*xywh-#3:452,1111,5404,1258	*	*xywh-#3:558,407,5283,790	*	*
4r	8F#/	16F#\LL	.	4f#/	ci-	.
.	.	16BB\	.	.	.	.
.	8ryy	16D\	.	.	.	.
.	.	16BB\JJ	.	.	.	.
2BBB/ 2BBBB/	8F#/	16F#\LL	.	4B/	-chem.	.
.	.	16BB\	.	.	.	.
.	8ryy	16D\	.	.	.	.
.	.	16BB\JJ	.	.	.	.
.	8F#/	16F#\LL	.	4r	.	.
.	.	16BB\	.	.	.	.
.	8ryy	16D\	.	.	.	.
.	.	16BB\JJ	.	.	.	.
=39	=39	=39	=39	=39	=39	=39
!	!	!	!	!LO:TX:a:i:t=dolce	!	!
4r	16B\LL	2ryy	.	[2.b\	wie-	.
.	16BB\	.	.	.	.	.
.	16E#X\	.	.	.	.	.
.	16BB\JJ	.	.	.	.	.
[2CC#X/ [2CCC#X/	16B\LL	.	.	.	.	.
.	16BB\	.	.	.	.	.
.	16E#\	.	.	.	.	.
.	16BB\JJ	.	.	.	.	.
.	16B\LL	[>4B/	.	.	.	.
.	16BB\	.	.	.	.	.
.	16A\	.	.	.	.	.
.	16BB\JJ	.	.	.	.	.
=40	=40	=40	=40	=40	=40	=40
4CC#/_ 4CCC#/_	16G#X\LL	4B/_>	.	4b\]	.	.
.	16BB\	.	.	.	.	.
.	16F#\	.	.	.	.	.
.	[16BB\JJ	.	.	.	.	.
!LO:TX:t=P:LO:N:vis=4:problem	!	!	!	!	!	!
8CC#/] 8CCC#/]	8E#X\ 8BB\]	8B/]	.	4e#X/	-cznem	.
*	*clefG2	*	*	*	*	*
8r	(8E#X/L	4.ryy	<	.	.	.
4r	8F#/	.	.	4r	.	.
.	8G#X/J	.	.	.	.	.
=41	=41	=41	=41	=41	=41	=41
!	!LO:TX:a:i:t=espress.	!	!	!	!	!
4r	2A/)	4r	[ <	2.r	.	.
4Cn/ 4CCn/	.	4E\	.	.	.	.
4r	8B/L	4r	.	.	.	.
.	8c/J	.	.	.	.	.
!!LO:LB:g=original
=42	=42	=42	=42	=42	=42	=42
*xywh-#3:593,2827,5209,1298	*xywh-#3:593,2827,5209,1298	*xywh-#3:593,2827,5209,1298	*	*xywh-#3:620,2163,5182,779	*	*
4r	(2f#/	4r	[	2.r	.	.
[2DD/ [2DDD/	.	[2c\ [2F#\	.	.	.	.
.	4e/	.	.	.	.	.
=43	=43	=43	=43	=43	=43	=43
4DD/] 4DDD/]	4.d/)	4c\] 4F#\]	.	2.r	.	.
2DD/ 2DDD/	.	2F#\	.	.	.	.
.	(<8A/L	.	>	.	.	.
.	8B/	.	.	.	.	.
.	8qd/	.	.	.	.	.
.	8c/J)	.	.	.	.	.
*	*v	*v	*	*	*	*
=44	=44	=44	=44	=44	=44
[2.GG/ [2.GGG/	2B/ 2G/ 2D/	]	8r	.	.
!	!	!	!LO:TX:a:i:t=espress.	!	!LO:DY:a
.	.	.	8g/	By-	<
.	.	.	8a/	-łaś	.
.	.	.	8b\	mi	.
.	(>4d/ 4B/ 4D/	.	[4dd\	tam	[
=45	=45	=45	=45	=45	=45
2GG/] 2GGG/]	(>2e/ 2B-X/ 2E'/)	<	8dd\]	.	.
.	.	.	8cc#X\	czemś	.
.	.	.	(4b-X\	tak	.
[4GG/ [4GGG/	4f#/ 4B-/ 4F#'/)	[	8a/)	.	.
.	.	.	8g/	sło-	.
=46	=46	=46	=46	=46	=46
*	*^	*	*	*	*
*	*	*xywh-#3:593,2827,5209,1298	*	*	*	*
4GG/] 4GGG/]	4g/ 4G/	4Bn/	.	4bn\	-necz-	.
*	*clefF4	*	*	*	*	*
2GG/ 2GGG/	(4B/ 4BB/	2G\	.	4d/	-nem	.
.	8c/L 8C/	.	.	4r	.	.
.	8d/J 8D/)	.	.	.	.	.
*	*v	*v	*	*	*	*
!!LO:LB:g=original
=47	=47	=47	=47	=47	=47
*xywh-#3:451,4508,5390,1399	*xywh-#3:451,4508,5390,1399	*	*xywh-#3:541,3929,5355,734	*	*
2.CC/ 2.CCC/	2.G\ 2.E-X\ 2.C\	.	4r	.	.
!	!	!	!	!	!LO:DY:a
.	.	.	4e-X/	Ach!	<
.	.	.	8e-/	jak	.
.	.	.	8fn/	mi	.
=48	=48	=48	=48	=48	=48
!	!LO:TX:b:i:t=poco	!	!	!	!
4r	4r	.	2g/	żal!	.
2BBB/ 2BBBB/	2G\ 2E-X\ 2BB\	sfz	.	.	.
.	.	.	8g/	jak	.
.	.	.	8a/	mi	.
=49	=49	=49	=49	=49	=49
4r	4r	.	[2b\	żal!	.
(4BB/ 4BBB'/	[4B\ 4G\ 4D#X'\	<	.	.	.
4BBB/ 4BBBB'/)	4B\] 4A\ 4D#'\	[[	8b\]	.	.
!	!	!	!	!	!LO:DY:a:rj
.	.	.	8b\	jak	f
=50	=50	=50	=50	=50	=50
*	*^	*	*	*	*
*	*	*xywh-#3:451,4508,5390,1399	*	*	*	*
2.CC/ 2.CCC/	(8B/L 8G/ 8E/	8ryy	f	[2.ee\	żal!	.
.	8BB/	[4.BB\	.	.	.	.
.	8F#/	.	.	.	.	.
.	8G/J	.	.	.	.	.
.	4B/)	4G\ 4BB\]	.	.	.	.
=51	=51	=51	=51	=51	=51	=51
2.DD#X/ 2.DDD#X/	8r	8ryy	p	8ee\]	.	.
.	(8C/L	[4.C\	.	8r	.	.
.	[[<8F#/	.	.	4r	.	.
.	8G/J	.	.	.	.	.
.	4A/)	4F#\]] 4C\]	.	4r	.	.
!!LO:LB:g=original
=52	=52	=52	=52	=52	=52	=52
*xywh-#3:21,6293,5834,1581	*xywh-#3:21,6293,5834,1581	*xywh-#3:21,6293,5834,1581	*	*xywh-#3:496,5679,5322,723	*	*
[2.EE/ [2.EEE/	8r	2ryy	.	2.r	.	.
.	(8BB/L	.	<	.	.	.
.	8E/	.	.	.	.	.
.	8F#/	.	.	.	.	.
*	*clefG2	*	*	*	*	*
.	8G/	[4G\	.	.	.	.
.	8A/J	.	.	.	.	.
=53	=53	=53	=53	=53	=53	=53
2.EE/_ 2.EEE/_	8B/L)	2.G\_	[ pp	4r	.	.
.	(8g/	.	.	.	.	.
.	8f#/	.	.	4r	.	.
.	8e/	.	.	.	.	.
.	8d/	.	.	8r	.	.
!	!	!	!	!	!	!LO:DY:a:rj
.	8c/J	.	.	8g/	ach	p
.	.	.	.	.	.	>
*	*v	*v	*	*	*	*
=54	=54	=54	=54	=54	=54
8EE/] 8EEE/]	8B\L 8G\])	.	[2.b\	jak	.
*	*clefF4	*	*	*	*
8r	(8G\	.	.	.	.
4r	8F#\	.	.	.	.
.	8E\	.	.	.	.
4r	8D\	.	.	.	.
.	8C\J	.	.	.	.
=55	=55	=55	=55	=55	=55
!	!	!	!LO:N:vis=2.	!	!
8r	[>2.BB/)	.	2b\_	.	.
(8GG/L	.	.	.	.	.
8FF#/	.	.	.	.	.
8EE/	.	.	.	.	.
!	!	!	!	!	!LO:DY:a
8DD/	.	.	8b\]	.	pp
8CC/J	.	.	8e/	mi	.
=56	=56	=56	=56	=56	=56
*	*^	*	*	*	*
*	*	*xywh-#3:21,6293,5834,1581	*	*	*	*
8BBB/L	2BB\]	2ryy	.	[>2.g/	żal!	.
8EEE/J	.	.	.	.	.	.
4GGG/)	.	.	.	.	.	.
4AAA/	[4E/	(8AA\L	pp	.	.	.
.	.	8EE\J	.	.	.	.
=57	=57	=57	=57	=57	=57	=57
2.EEE;</	2.E;/]	2.GG\)	.	2.g;/]	.	.
*	*v	*v	*	*	*	*
==	==	==	==	==	==
*-	*-	*-	*-	*-	*-
!!!system-decoration: s1[(s2,s3)]
!!!RDF**kern: > = above
!!!RDF**kern: < = below
!!!RDF**dynam: > = dim.
!!!ENC: Filip Voros
!!!END: 2022-02-16
!!!ENC: Leszek Kubiak
!!!END: 2022-02-18
!!!ENC-iiif: Antoni Szymański
!!!END-iiif: 2022-09-04
